Numix-Circle/48x48/apps/multimedia-volume-control.svg

<?xml version="1.0" encoding="UTF-8" standalone="no"?>
<svg
   xmlns:dc="http://purl.org/dc/elements/1.1/"
   xmlns:cc="http://creativecommons.org/ns#"
   xmlns:rdf="http://www.w3.org/1999/02/22-rdf-syntax-ns#"
   xmlns:svg="http://www.w3.org/2000/svg"
   xmlns="http://www.w3.org/2000/svg"
   xmlns:xlink="http://www.w3.org/1999/xlink"
   xmlns:sodipodi="http://sodipodi.sourceforge.net/DTD/sodipodi-0.dtd"
   xmlns:inkscape="http://www.inkscape.org/namespaces/inkscape"
   width="48"
   viewBox="0 0 13.546667 13.546667"
   height="48"
   id="svg2"
   version="1.1"
   inkscape:version="0.91 r13725"
   sodipodi:docname="xfce-sound.svg">
  <metadata
     id="metadata331">
    <rdf:RDF>
      <cc:Work
         rdf:about="">
        <dc:format>image/svg+xml</dc:format>
        <dc:type
           rdf:resource="http://purl.org/dc/dcmitype/StillImage" />
        <dc:title />
      </cc:Work>
    </rdf:RDF>
  </metadata>
  <sodipodi:namedview
     pagecolor="#ffffff"
     bordercolor="#666666"
     borderopacity="1"
     objecttolerance="10"
     gridtolerance="10"
     guidetolerance="10"
     inkscape:pageopacity="0"
     inkscape:pageshadow="2"
     inkscape:window-width="1920"
     inkscape:window-height="1052"
     id="namedview329"
     showgrid="true"
     inkscape:zoom="9.8241631"
     inkscape:cx="25.163216"
     inkscape:cy="18.585026"
     inkscape:window-x="0"
     inkscape:window-y="28"
     inkscape:window-maximized="1"
     inkscape:current-layer="layer3">
    <inkscape:grid
       type="xygrid"
       id="grid3308" />
  </sodipodi:namedview>
  <defs
     id="defs4">
    <linearGradient
       id="linearGradient3988">
      <stop
         style="stop-color:#fd8536;stop-opacity:1;"
         offset="0"
         id="stop3990" />
      <stop
         style="stop-color:#ff9550;stop-opacity:1;"
         offset="1"
         id="stop3992" />
    </linearGradient>
    <linearGradient
       inkscape:collect="always"
       xlink:href="#linearGradient3988"
       id="linearGradient4033"
       x1="-27"
       y1="13"
       x2="-24"
       y2="13"
       gradientUnits="userSpaceOnUse" />
  </defs>
  <g
     inkscape:groupmode="layer"
     id="layer1"
     inkscape:label="Shadow"
     sodipodi:insensitive="true">
    <path
       style="opacity:0.05;fill:#000000;fill-opacity:1;stroke:none"
       d="M 25,2 C 12.297451,2 2,12.297451 2,25 2,31.367153 4.6007106,37.116628 8.78125,41.28125 12.865755,44.99361 18.29568,47.25 24.25,47.25 c 12.702549,0 23,-10.297451 23,-23 0,-5.95432 -2.25639,-11.384245 -5.96875,-15.46875 C 37.116628,4.6007105 31.367153,2 25,2 z M 41.28125,8.78125 C 45.135604,12.894061 47.5,18.418655 47.5,24.5 c 0,12.702549 -10.297451,23 -23,23 C 18.418655,47.5 12.894061,45.135604 8.78125,41.28125 12.940939,45.4251 18.664604,48 25,48 37.702549,48 48,37.702549 48,25 48,18.664604 45.4251,12.940939 41.28125,8.78125 z"
       transform="scale(0.28222223,0.28222223)"
       id="path3978"
       inkscape:connector-curvature="0" />
    <path
       style="opacity:0.1;fill:#000000;fill-opacity:1;stroke:none"
       d="M 41.28125,8.78125 C 44.99361,12.865755 47.25,18.29568 47.25,24.25 c 0,12.702549 -10.297451,23 -23,23 -5.95432,0 -11.384245,-2.25639 -15.46875,-5.96875 C 12.894061,45.135604 18.418655,47.5 24.5,47.5 c 12.702549,0 23,-10.297451 23,-23 0,-6.081345 -2.364396,-11.605939 -6.21875,-15.71875 z"
       transform="scale(0.28222223,0.28222223)"
       id="path3976"
       inkscape:connector-curvature="0" />
    <path
       transform="matrix(4.3274074,0,0,3.2455556,117.19278,-35.348334)"
       d="m -24,13 a 1.5,2 0 1 1 -3,0 1.5,2 0 1 1 3,0 z"
       sodipodi:ry="2"
       sodipodi:rx="1.5"
       sodipodi:cy="13"
       sodipodi:cx="-25.5"
       id="path3952"
       style="opacity:0.2;fill:#000000;fill-opacity:1;stroke:none"
       sodipodi:type="arc" />
  </g>
  <g
     inkscape:groupmode="layer"
     id="layer2"
     inkscape:label="Base">
    <path
       sodipodi:type="arc"
       style="fill:url(#linearGradient4033);fill-opacity:1.0;stroke:none"
       id="path3942"
       sodipodi:cx="-25.5"
       sodipodi:cy="13"
       sodipodi:rx="1.5"
       sodipodi:ry="2"
       d="m -24,13 a 1.5,2 0 1 1 -3,0 1.5,2 0 1 1 3,0 z"
       transform="matrix(0,-4.3274075,3.2455556,0,-35.418894,-103.57556)" />
    <path
       style="opacity:0.1;fill:#000000;fill-opacity:1;stroke:none"
       d="M 40.03125 7.53125 C 43.74361 11.615755 46 17.04568 46 23 C 46 35.702549 35.702549 46 23 46 C 17.04568 46 11.615755 43.74361 7.53125 40.03125 C 11.709416 44.322508 17.537578 47 24 47 C 36.702549 47 47 36.702549 47 24 C 47 17.537578 44.322508 11.709416 40.03125 7.53125 z "
       id="path4027"
       transform="scale(0.28222223,0.28222223)" />
  </g>
  <g
     inkscape:groupmode="layer"
     id="layer3"
     inkscape:label="Symbol">
    <g
       id="g4357"
       style="opacity:0.1;fill:#000000;fill-opacity:1"
       transform="translate(0.28222217,0.28222217)">
      <path
         style="fill:#000000;fill-opacity:1;stroke:none"
         d="m 3.3866668,3.3866669 c -1.1288889,2.5400001 -1.1288889,4.2333334 0,6.7733341 2.2577778,1.128888 4.5155557,1.128888 6.7733332,0 1.128889,-2.5400007 1.128889,-4.233334 0,-6.7733341 -2.2577776,-1.1288891 -4.5155554,-1.1288891 -6.7733332,0 z"
         id="path4347"
         inkscape:connector-curvature="0"
         sodipodi:nodetypes="ccccc" />
      <path
         transform="matrix(0.05941521,0,0,0.03527778,5.1245616,2.8575001)"
         d="m -15,23 c 0,8.836556 -4.253295,16 -9.5,16 -5.246705,0 -9.5,-7.163444 -9.5,-16 0,-8.836556 4.253295,-16 9.5,-16 5.246705,0 9.5,7.163444 9.5,16 z"
         sodipodi:ry="16"
         sodipodi:rx="9.5"
         sodipodi:cy="23"
         sodipodi:cx="-24.5"
         id="path4349"
         style="fill:#000000;fill-opacity:1;stroke:none"
         sodipodi:type="arc" />
      <path
         sodipodi:type="arc"
         style="fill:#000000;fill-opacity:1;stroke:none"
         id="path4351"
         sodipodi:cx="-24.5"
         sodipodi:cy="23"
         sodipodi:rx="9.5"
         sodipodi:ry="16"
         d="m -15,23 c 0,8.836556 -4.253295,16 -9.5,16 -5.246705,0 -9.5,-7.163444 -9.5,-16 0,-8.836556 4.253295,-16 9.5,-16 5.246705,0 9.5,7.163444 9.5,16 z"
         transform="matrix(0.05941521,0,0,0.03527778,5.1245616,9.0663897)" />
      <path
         transform="matrix(0.05941521,0,0,0.03527778,11.33345,9.0663897)"
         d="m -15,23 c 0,8.836556 -4.253295,16 -9.5,16 -5.246705,0 -9.5,-7.163444 -9.5,-16 0,-8.836556 4.253295,-16 9.5,-16 5.246705,0 9.5,7.163444 9.5,16 z"
         sodipodi:ry="16"
         sodipodi:rx="9.5"
         sodipodi:cy="23"
         sodipodi:cx="-24.5"
         id="path4353"
         style="fill:#000000;fill-opacity:1;stroke:none"
         sodipodi:type="arc" />
      <path
         sodipodi:type="arc"
         style="fill:#000000;fill-opacity:1;stroke:none"
         id="path4355"
         sodipodi:cx="-24.5"
         sodipodi:cy="23"
         sodipodi:rx="9.5"
         sodipodi:ry="16"
         d="m -15,23 c 0,8.836556 -4.253295,16 -9.5,16 -5.246705,0 -9.5,-7.163444 -9.5,-16 0,-8.836556 4.253295,-16 9.5,-16 5.246705,0 9.5,7.163444 9.5,16 z"
         transform="matrix(0.05941521,0,0,0.03527778,11.33345,2.8575001)" />
    </g>
    <path
       style="fill:#ecf1f4;fill-opacity:1;stroke:none"
       d="m 3.3866668,3.3866669 c -1.1288889,2.5400001 -1.1288889,4.2333334 0,6.7733341 2.2577778,1.128888 4.5155557,1.128888 6.7733332,0 1.128889,-2.5400007 1.128889,-4.233334 0,-6.7733341 -2.2577776,-1.1288891 -4.5155554,-1.1288891 -6.7733332,0 z"
       id="path4328"
       inkscape:connector-curvature="0"
       sodipodi:nodetypes="ccccc" />
    <path
       sodipodi:type="arc"
       style="fill:#697b7c;fill-opacity:1;stroke:none"
       id="path4330"
       sodipodi:cx="-21.5"
       sodipodi:cy="15.5"
       sodipodi:rx="8.5"
       sodipodi:ry="8.5"
       d="m -13,15.5 a 8.5,8.5 0 1 1 -17,0 8.5,8.5 0 1 1 17,0 z"
       transform="matrix(0.431634,0,0,0.431634,16.053464,0.08300648)" />
    <path
       transform="matrix(0.33202615,0,0,0.33202615,13.911896,1.6269282)"
       d="m -13,15.5 a 8.5,8.5 0 1 1 -17,0 8.5,8.5 0 1 1 17,0 z"
       sodipodi:ry="8.5"
       sodipodi:rx="8.5"
       sodipodi:cy="15.5"
       sodipodi:cx="-21.5"
       id="path4332"
       style="fill:#ffbf5c;fill-opacity:1;stroke:none"
       sodipodi:type="arc" />
    <path
       transform="matrix(0.05941521,0,0,0.03527778,5.1245616,2.8575001)"
       d="m -15,23 a 9.5,16 0 1 1 -19,0 9.5,16 0 1 1 19,0 z"
       sodipodi:ry="16"
       sodipodi:rx="9.5"
       sodipodi:cy="23"
       sodipodi:cx="-24.5"
       id="path4320"
       style="fill:#ecf1f4;fill-opacity:1;stroke:none"
       sodipodi:type="arc" />
    <path
       sodipodi:type="arc"
       style="fill:#ecf1f4;fill-opacity:1;stroke:none"
       id="path4322"
       sodipodi:cx="-24.5"
       sodipodi:cy="23"
       sodipodi:rx="9.5"
       sodipodi:ry="16"
       d="m -15,23 a 9.5,16 0 1 1 -19,0 9.5,16 0 1 1 19,0 z"
       transform="matrix(0.05941521,0,0,0.03527778,5.1245616,9.0663897)" />
    <path
       transform="matrix(0.05941521,0,0,0.03527778,11.33345,9.0663897)"
       d="m -15,23 a 9.5,16 0 1 1 -19,0 9.5,16 0 1 1 19,0 z"
       sodipodi:ry="16"
       sodipodi:rx="9.5"
       sodipodi:cy="23"
       sodipodi:cx="-24.5"
       id="path4324"
       style="fill:#ecf1f4;fill-opacity:1;stroke:none"
       sodipodi:type="arc" />
    <path
       sodipodi:type="arc"
       style="fill:#ecf1f4;fill-opacity:1;stroke:none"
       id="path4326"
       sodipodi:cx="-24.5"
       sodipodi:cy="23"
       sodipodi:rx="9.5"
       sodipodi:ry="16"
       d="m -15,23 a 9.5,16 0 1 1 -19,0 9.5,16 0 1 1 19,0 z"
       transform="matrix(0.05941521,0,0,0.03527778,11.33345,2.8575001)" />
    <path
       sodipodi:type="arc"
       style="fill:#5c5d5e;fill-opacity:1;stroke:none"
       id="path4335"
       sodipodi:cx="-21.5"
       sodipodi:cy="15.5"
       sodipodi:rx="8.5"
       sodipodi:ry="8.5"
       d="m -13,15.5 a 8.5,8.5 0 1 1 -17,0 8.5,8.5 0 1 1 17,0 z"
       transform="matrix(0.23241831,0,0,0.23241831,11.770327,3.1708497)" />
    <path
       transform="matrix(0.06640523,0,0,0.06640523,7.9188237,5.179608)"
       d="m -13,15.5 a 8.5,8.5 0 1 1 -17,0 8.5,8.5 0 1 1 17,0 z"
       sodipodi:ry="8.5"
       sodipodi:rx="8.5"
       sodipodi:cy="15.5"
       sodipodi:cx="-21.5"
       id="path4337"
       style="fill:#f7f5e9;fill-opacity:1;stroke:none"
       sodipodi:type="arc" />
    <path
       sodipodi:type="arc"
       style="fill:#bec9ce;fill-opacity:1;stroke:none"
       id="path4339"
       sodipodi:cx="11.751537"
       sodipodi:cy="6"
       sodipodi:rx="1.2484622"
       sodipodi:ry="1"
       d="M 13,6 A 1.2484622,1 0 1 1 10.503075,6 1.2484622,1 0 1 1 13,6 z"
       transform="matrix(0.22605589,0,0,0.28222223,1.0123848,1.9755556)" />
    <path
       transform="matrix(0.22605589,0,0,0.28222223,7.2212738,1.9755556)"
       d="M 13,6 A 1.2484622,1 0 1 1 10.503075,6 1.2484622,1 0 1 1 13,6 z"
       sodipodi:ry="1"
       sodipodi:rx="1.2484622"
       sodipodi:cy="6"
       sodipodi:cx="11.751537"
       id="path4341"
       style="fill:#bec9ce;fill-opacity:1;stroke:none"
       sodipodi:type="arc" />
    <path
       sodipodi:type="arc"
       style="fill:#bec9ce;fill-opacity:1;stroke:none"
       id="path4343"
       sodipodi:cx="11.751537"
       sodipodi:cy="6"
       sodipodi:rx="1.2484622"
       sodipodi:ry="1"
       d="M 13,6 A 1.2484622,1 0 1 1 10.503075,6 1.2484622,1 0 1 1 13,6 z"
       transform="matrix(0.22605589,0,0,0.28222223,7.2212738,8.1844446)" />
    <path
       transform="matrix(0.22605589,0,0,0.28222223,1.0123848,8.1844446)"
       d="M 13,6 A 1.2484622,1 0 1 1 10.503075,6 1.2484622,1 0 1 1 13,6 z"
       sodipodi:ry="1"
       sodipodi:rx="1.2484622"
       sodipodi:cy="6"
       sodipodi:cx="11.751537"
       id="path4345"
       style="fill:#bec9ce;fill-opacity:1;stroke:none"
       sodipodi:type="arc" />
  </g>
</svg>

<svg xmlns="http://www.w3.org/2000/svg" width="48" viewBox="0 0 13.546667 13.546667" height="48">
 <defs>
  <linearGradient id="linearGradient4033" x1="-27" x2="-24" gradientUnits="userSpaceOnUse">
   <stop style="stop-color:#fd8536;stop-opacity:1"/>
   <stop offset="1" style="stop-color:#ff9550;stop-opacity:1"/>
  </linearGradient>
 </defs>
 <g>
  <path d="m 25 2 c -12.703 0 -23 10.297 -23 23 0 6.367 2.601 12.12 6.781 16.281 4.085 3.712 9.514 5.969 15.469 5.969 c 12.703 0 23 -10.297 23 -23 0 -5.954 -2.256 -11.384 -5.969 -15.469 c -4.165 -4.181 -9.914 -6.781 -16.281 -6.781 z m 16.281 6.781 c 3.854 4.113 6.219 9.637 6.219 15.719 c 0 12.703 -10.297 23 -23 23 c -6.081 0 -11.606 -2.364 -15.719 -6.219 4.16 4.144 9.883 6.719 16.219 6.719 12.703 0 23 -10.297 23 -23 0 -6.335 -2.575 -12.06 -6.719 -16.219 z" transform="scale(0.28222223,0.28222223)" style="fill:#000;opacity:0.05;fill-opacity:1;stroke:none"/>
  <path d="m 41.28 8.781 c 3.712 4.085 5.969 9.514 5.969 15.469 c 0 12.703 -10.297 23 -23 23 -5.954 0 -11.384 -2.256 -15.469 -5.969 c 4.113 3.854 9.637 6.219 15.719 6.219 c 12.703 0 23 -10.297 23 -23 0 -6.081 -2.364 -11.606 -6.219 -15.719 z" transform="scale(0.28222223,0.28222223)" style="fill:#000;opacity:0.1;fill-opacity:1;stroke:none"/>
  <path transform="matrix(4.3274074,0,0,3.2455556,117.19278,-35.348334)" d="m -24 13 a 1.5 2 0 1 1 -3 0 1.5 2 0 1 1 3 0 z" style="fill:#000;opacity:0.2;fill-opacity:1;stroke:none"/>
 </g>
 <g>
  <path d="m -24 13 a 1.5 2 0 1 1 -3 0 1.5 2 0 1 1 3 0 z" transform="matrix(0,-4.3274075,3.2455556,0,-35.418894,-103.57556)" style="fill:url(#linearGradient4033);fill-opacity:1;stroke:none"/>
  <path d="m 40.03 7.531 c 3.712 4.085 5.969 9.514 5.969 15.469 c 0 12.703 -10.297 23 -23 23 c -5.954 0 -11.384 -2.256 -15.469 -5.969 c 4.178 4.291 10.01 6.969 16.469 6.969 c 12.703 0 23 -10.297 23 -23 c 0 -6.462 -2.677 -12.291 -6.969 -16.469 z" transform="scale(0.28222223,0.28222223)" style="fill:#000;opacity:0.1;fill-opacity:1;stroke:none"/>
 </g>
 <g>
  <g transform="translate(0.28222217,0.28222217)" style="fill:#000;opacity:0.1;fill-opacity:1">
   <path d="m 3.387 3.387 c -1.129 2.54 -1.129 4.233 0 6.773 2.258 1.129 4.516 1.129 6.773 0 1.129 -2.54 1.129 -4.233 0 -6.773 -2.258 -1.129 -4.516 -1.129 -6.773 0 z" style="stroke:none"/>
   <path transform="matrix(0.05941521,0,0,0.03527778,5.1245616,2.8575001)" d="m -15 23 c 0 8.837 -4.253 16 -9.5 16 -5.247 0 -9.5 -7.163 -9.5 -16 0 -8.837 4.253 -16 9.5 -16 5.247 0 9.5 7.163 9.5 16 z" style="stroke:none"/>
   <path d="m -15 23 c 0 8.837 -4.253 16 -9.5 16 -5.247 0 -9.5 -7.163 -9.5 -16 0 -8.837 4.253 -16 9.5 -16 5.247 0 9.5 7.163 9.5 16 z" transform="matrix(0.05941521,0,0,0.03527778,5.1245616,9.0663897)" style="stroke:none"/>
   <path transform="matrix(0.05941521,0,0,0.03527778,11.33345,9.0663897)" d="m -15 23 c 0 8.837 -4.253 16 -9.5 16 -5.247 0 -9.5 -7.163 -9.5 -16 0 -8.837 4.253 -16 9.5 -16 5.247 0 9.5 7.163 9.5 16 z" style="stroke:none"/>
   <path d="m -15 23 c 0 8.837 -4.253 16 -9.5 16 -5.247 0 -9.5 -7.163 -9.5 -16 0 -8.837 4.253 -16 9.5 -16 5.247 0 9.5 7.163 9.5 16 z" transform="matrix(0.05941521,0,0,0.03527778,11.33345,2.8575001)" style="stroke:none"/>
  </g>
  <path d="m 3.387 3.387 c -1.129 2.54 -1.129 4.233 0 6.773 2.258 1.129 4.516 1.129 6.773 0 1.129 -2.54 1.129 -4.233 0 -6.773 -2.258 -1.129 -4.516 -1.129 -6.773 0 z" style="fill:#ecf1f4;fill-opacity:1;stroke:none"/>
  <path d="m -13 15.5 a 8.5 8.5 0 1 1 -17 0 8.5 8.5 0 1 1 17 0 z" transform="matrix(0.431634,0,0,0.431634,16.053464,0.08300648)" style="fill:#697b7c;fill-opacity:1;stroke:none"/>
  <path transform="matrix(0.33202615,0,0,0.33202615,13.911896,1.6269282)" d="m -13 15.5 a 8.5 8.5 0 1 1 -17 0 8.5 8.5 0 1 1 17 0 z" style="fill:#ffbf5c;fill-opacity:1;stroke:none"/>
  <path transform="matrix(0.05941521,0,0,0.03527778,5.1245616,2.8575001)" d="m -15 23 a 9.5 16 0 1 1 -19 0 9.5 16 0 1 1 19 0 z" style="fill:#ecf1f4;fill-opacity:1;stroke:none"/>
  <path d="m -15 23 a 9.5 16 0 1 1 -19 0 9.5 16 0 1 1 19 0 z" transform="matrix(0.05941521,0,0,0.03527778,5.1245616,9.0663897)" style="fill:#ecf1f4;fill-opacity:1;stroke:none"/>
  <path transform="matrix(0.05941521,0,0,0.03527778,11.33345,9.0663897)" d="m -15 23 a 9.5 16 0 1 1 -19 0 9.5 16 0 1 1 19 0 z" style="fill:#ecf1f4;fill-opacity:1;stroke:none"/>
  <path d="m -15 23 a 9.5 16 0 1 1 -19 0 9.5 16 0 1 1 19 0 z" transform="matrix(0.05941521,0,0,0.03527778,11.33345,2.8575001)" style="fill:#ecf1f4;fill-opacity:1;stroke:none"/>
  <path d="m -13 15.5 a 8.5 8.5 0 1 1 -17 0 8.5 8.5 0 1 1 17 0 z" transform="matrix(0.23241831,0,0,0.23241831,11.770327,3.1708497)" style="fill:#5c5d5e;fill-opacity:1;stroke:none"/>
  <path transform="matrix(0.06640523,0,0,0.06640523,7.9188237,5.179608)" d="m -13 15.5 a 8.5 8.5 0 1 1 -17 0 8.5 8.5 0 1 1 17 0 z" style="fill:#f7f5e9;fill-opacity:1;stroke:none"/>
  <path d="M 13 6 A 1.248 1 0 1 1 10.503 6 1.248 1 0 1 1 13 6 z" transform="matrix(0.22605589,0,0,0.28222223,1.0123848,1.9755556)" style="fill:#bec9ce;fill-opacity:1;stroke:none"/>
  <path transform="matrix(0.22605589,0,0,0.28222223,7.2212738,1.9755556)" d="M 13 6 A 1.248 1 0 1 1 10.503 6 1.248 1 0 1 1 13 6 z" style="fill:#bec9ce;fill-opacity:1;stroke:none"/>
  <path d="M 13 6 A 1.248 1 0 1 1 10.503 6 1.248 1 0 1 1 13 6 z" transform="matrix(0.22605589,0,0,0.28222223,7.2212738,8.1844446)" style="fill:#bec9ce;fill-opacity:1;stroke:none"/>
  <path transform="matrix(0.22605589,0,0,0.28222223,1.0123848,8.1844446)" d="M 13 6 A 1.248 1 0 1 1 10.503 6 1.248 1 0 1 1 13 6 z" style="fill:#bec9ce;fill-opacity:1;stroke:none"/>
 </g>
</svg>
